src/assets/icons/stylesync-logo.svg

<svg viewBox="0 0 143 36" fill="none" xmlns="http://www.w3.org/2000/svg">
<g clip-path="url(#clip0_29632_273)">
<mask id="mask0_29632_273" style="mask-type:luminance" maskUnits="userSpaceOnUse" x="0" y="0" width="143" height="36">
<path d="M142.634 0H0V36H142.634V0Z" fill="white"/>
</mask>
<g mask="url(#mask0_29632_273)">
<path d="M29.5586 26.8373C29.5958 26.4276 29.7324 26.0304 29.9558 25.6332C30.1917 25.2235 30.4524 24.9132 30.7379 24.6773C31.5324 25.2111 32.4262 25.658 33.3945 26.018C34.3627 26.378 35.331 26.5518 36.2745 26.5518C37.4165 26.5518 38.3103 26.3035 38.9434 25.807C39.5765 25.3104 39.9117 24.6649 39.9117 23.8828C39.9117 23.2001 39.6882 22.5918 39.2289 22.0952C38.782 21.5863 38.1489 21.1518 37.3296 20.8166L34.0151 19.4263C32.8607 18.9297 31.942 18.309 31.2593 17.5518C30.5765 16.7945 30.2414 15.8263 30.2414 14.6594C30.2414 13.6787 30.502 12.7849 31.011 11.9904C31.52 11.1835 32.2524 10.538 33.171 10.0787C34.102 9.60696 35.182 9.37109 36.411 9.37109C37.5407 9.37109 38.6082 9.52006 39.6138 9.81799C40.6193 10.1035 41.4758 10.4263 42.1958 10.7863C42.1834 11.1835 42.0841 11.5807 41.8979 11.9904C41.7117 12.4001 41.4758 12.7228 41.1779 12.9835C40.4579 12.6235 39.6634 12.3256 38.8069 12.0773C37.9627 11.8166 37.1807 11.6925 36.4731 11.6925C35.4303 11.6925 34.611 11.9532 33.9903 12.4621C33.3696 12.9711 33.0717 13.6166 33.0717 14.3739C33.0717 15.007 33.2951 15.5159 33.7296 15.9132C34.1765 16.3104 34.7476 16.658 35.4427 16.9435L38.72 18.309C39.4896 18.6318 40.1848 19.029 40.8055 19.5132C41.4262 19.9849 41.9227 20.5559 42.2951 21.2139C42.6676 21.8718 42.8414 22.6042 42.8414 23.4483C42.8414 24.4911 42.5931 25.4345 42.1089 26.2539C41.6248 27.0856 40.88 27.7311 39.8869 28.2152C38.8938 28.687 37.64 28.9352 36.1255 28.9352C34.9834 28.9352 33.8289 28.749 32.662 28.389C31.5076 27.9794 30.4648 27.4704 29.5586 26.8373Z" fill="#030F3F"/>
<path d="M46.7041 12.4723C46.7041 11.864 46.8034 11.4295 46.9896 11.144C47.1882 10.8709 47.5731 10.7344 48.1441 10.7344H49.1496L49.3234 10.9082V25.333C49.3234 25.693 49.4103 25.9785 49.5717 26.202C49.7455 26.413 50.031 26.5247 50.4406 26.5247H52.3896C52.5386 26.9344 52.6131 27.3813 52.6131 27.8902C52.6131 27.9895 52.6131 28.0889 52.6006 28.1882C52.6006 28.2875 52.5882 28.3868 52.5634 28.4613C52.1165 28.5233 51.6324 28.573 51.111 28.6102C50.602 28.6475 50.0806 28.6599 49.5344 28.6599C48.6282 28.6599 47.9206 28.4364 47.4241 27.9771C46.94 27.5178 46.6917 26.8351 46.6917 25.9289V12.4723H46.7041ZM52.762 14.9302C52.8489 15.2778 52.8862 15.613 52.8862 15.9233C52.8862 16.2709 52.8489 16.6061 52.762 16.9289L48.3303 16.8792L44.7055 16.9289C44.631 16.6061 44.5938 16.2709 44.5938 15.9233C44.5938 15.613 44.631 15.2778 44.7055 14.9302L48.3427 15.0047L52.762 14.9302Z" fill="#030F3F"/>
<path d="M62.4669 28.1033C62.0572 29.5185 61.6227 30.6978 61.1386 31.6537C60.6669 32.622 60.0462 33.342 59.3014 33.8261C58.5565 34.3102 57.5883 34.5585 56.3965 34.5585C55.9745 34.5585 55.5152 34.5089 55.0062 34.422C54.5096 34.3351 54.1248 34.2357 53.8393 34.1364C53.8145 33.8137 53.8517 33.4661 53.9758 33.0813C54.1 32.7089 54.2365 32.4109 54.4227 32.1999C54.6462 32.2744 54.9441 32.3489 55.3165 32.4233C55.6889 32.4978 56.0614 32.5351 56.4214 32.5351C57.0545 32.5351 57.5758 32.3861 57.9979 32.0882C58.42 31.8026 58.7676 31.393 59.0407 30.8592C59.3262 30.3378 59.5745 29.7171 59.7855 28.9971L59.8848 28.6744C59.3386 28.6495 58.8917 28.5378 58.5814 28.3392C58.2586 28.1406 58.0103 27.7557 57.8365 27.2095L54.1869 15.1557C54.4848 15.0192 54.7827 14.9199 55.0558 14.8578C55.3414 14.7833 55.5896 14.7461 55.8131 14.7461C56.1234 14.7461 56.3965 14.833 56.62 14.9944C56.8434 15.1557 57.0296 15.4785 57.1662 15.9626L59.0779 22.4054C59.2145 22.8399 59.351 23.3116 59.4752 23.8082C59.5993 24.3047 59.7234 24.7889 59.8476 25.2606C59.9717 25.7323 60.071 26.142 60.1455 26.502C60.1827 26.6261 60.2696 26.7006 60.4062 26.7006L63.4972 14.9447C63.671 14.9075 63.8572 14.8826 64.0683 14.8578C64.2793 14.8454 64.4779 14.833 64.6765 14.833C64.9124 14.833 65.1483 14.8454 65.3841 14.8702C65.62 14.8951 65.8434 14.9447 66.0545 15.0192L66.1538 15.1682L62.4669 28.1033Z" fill="#030F3F"/>
<path d="M73.4061 26.525C73.5551 26.9222 73.6296 27.3691 73.6296 27.8905C73.6296 27.9898 73.6296 28.0891 73.6172 28.1884C73.6172 28.2877 73.6048 28.387 73.5799 28.4615C73.282 28.5112 72.9096 28.5484 72.4751 28.5981C72.0406 28.6477 71.6558 28.6725 71.3082 28.6725C70.4517 28.6725 69.7937 28.4491 69.3344 27.9898C68.8875 27.5305 68.6641 26.8477 68.6641 25.9415V8.46286L68.8254 8.28906H69.8434C70.4144 8.28906 70.7992 8.42561 70.9854 8.71113C71.1841 8.98424 71.2834 9.43113 71.2834 10.0394V25.3208C71.2834 25.7305 71.3703 26.0284 71.5441 26.227C71.7303 26.4256 72.0034 26.525 72.351 26.525H73.4061Z" fill="#030F3F"/>
<path d="M77.1791 22.5914V20.6177H84.0439V20.2577C84.0439 19.5997 83.9446 18.9914 83.7584 18.4328C83.5722 17.8742 83.2742 17.4273 82.8522 17.0921C82.4425 16.757 81.8963 16.5956 81.2136 16.5956C80.2453 16.5956 79.5129 17.0052 79.0287 17.8245C78.5446 18.6314 78.2963 19.7363 78.2963 21.1514V21.9832C78.2963 22.877 78.3832 23.6839 78.5694 24.3914C78.768 25.099 79.0908 25.6577 79.5625 26.0673C80.0342 26.477 80.6922 26.6756 81.5487 26.6756C82.2563 26.6756 82.9267 26.5763 83.5722 26.3777C84.2177 26.1666 84.826 25.9059 85.4218 25.608C85.6453 25.819 85.8439 26.0921 85.9929 26.4397C86.1542 26.7749 86.2411 27.0728 86.2784 27.3459C85.6204 27.8177 84.8508 28.1901 83.9322 28.4756C83.026 28.7611 82.1073 28.8977 81.1515 28.8977C80.0715 28.8977 79.1777 28.699 78.4453 28.3142C77.7253 27.917 77.1418 27.3956 76.7073 26.7252C76.2729 26.0549 75.9625 25.2977 75.7887 24.4411C75.6025 23.5845 75.5156 22.6908 75.5156 21.7597C75.5156 20.3942 75.7267 19.1652 76.1487 18.0977C76.5832 17.0177 77.2163 16.1611 78.0605 15.5404C78.9046 14.9197 79.9598 14.6094 81.2136 14.6094C82.3929 14.6094 83.3984 14.8701 84.2053 15.4039C85.0122 15.9252 85.6205 16.6328 86.0425 17.5266C86.4522 18.408 86.6632 19.4011 86.6632 20.4935C86.6632 20.9156 86.6508 21.288 86.626 21.5983C86.6011 21.8963 86.5515 22.2314 86.477 22.6039H77.1791V22.5914Z" fill="#030F3F"/>
<path d="M88.9336 26.8373C88.9708 26.4276 89.1074 26.0304 89.3308 25.6332C89.5667 25.2235 89.8274 24.9132 90.1129 24.6773C90.9074 25.2111 91.8012 25.658 92.7695 26.018C93.7377 26.378 94.706 26.5518 95.6495 26.5518C96.7915 26.5518 97.6853 26.3035 98.3184 25.807C98.9515 25.3104 99.2867 24.6649 99.2867 23.8828C99.2867 23.2001 99.0632 22.5918 98.6039 22.0952C98.157 21.5863 97.5239 21.1518 96.7046 20.8166L93.3777 19.4263C92.2232 18.9297 91.3046 18.309 90.6219 17.5518C89.9391 16.7945 89.6039 15.8263 89.6039 14.6594C89.6039 13.6787 89.8646 12.7849 90.3736 11.9904C90.8826 11.1835 91.615 10.538 92.5336 10.0787C93.4646 9.60696 94.5446 9.37109 95.7736 9.37109C96.9032 9.37109 97.9708 9.52006 98.9763 9.81799C99.9819 10.1035 100.838 10.4263 101.558 10.7863C101.546 11.1835 101.447 11.5807 101.26 11.9904C101.074 12.4001 100.838 12.7228 100.54 12.9835C99.8205 12.6235 99.026 12.3256 98.1695 12.0773C97.3253 11.8166 96.5432 11.6925 95.8357 11.6925C94.7929 11.6925 93.9736 11.9532 93.3529 12.4621C92.7322 12.9711 92.4343 13.6166 92.4343 14.3739C92.4343 15.007 92.6577 15.5159 93.0922 15.9132C93.5391 16.3104 94.1101 16.658 94.8053 16.9435L98.0826 18.309C98.8522 18.6318 99.5474 19.029 100.168 19.5132C100.789 19.9849 101.285 20.5559 101.658 21.2139C102.03 21.8718 102.204 22.6042 102.204 23.4483C102.204 24.4911 101.956 25.4345 101.472 26.2539C100.987 27.0856 100.243 27.7311 99.2495 28.2152C98.2563 28.687 97.0026 28.9352 95.4881 28.9352C94.346 28.9352 93.1915 28.749 92.0246 28.389C90.8701 27.9794 89.8398 27.4704 88.9336 26.8373Z" fill="#030F3F"/>
<path d="M111.565 28.1033C111.155 29.5185 110.72 30.6978 110.236 31.6537C109.765 32.622 109.144 33.342 108.399 33.8261C107.654 34.3102 106.686 34.5585 105.494 34.5585C105.072 34.5585 104.613 34.5089 104.104 34.422C103.607 34.3351 103.222 34.2357 102.937 34.1364C102.912 33.8137 102.949 33.4661 103.074 33.0813C103.198 32.7089 103.334 32.4109 103.52 32.1999C103.744 32.2744 104.042 32.3489 104.414 32.4233C104.787 32.4978 105.159 32.5351 105.519 32.5351C106.152 32.5351 106.673 32.3861 107.096 32.0882C107.518 31.8026 107.865 31.393 108.138 30.8592C108.424 30.3378 108.672 29.7171 108.883 28.9971L108.982 28.6744C108.436 28.6495 107.989 28.5378 107.679 28.3392C107.356 28.1406 107.108 27.7557 106.934 27.2095L103.285 15.1557C103.582 15.0192 103.88 14.9199 104.154 14.8578C104.439 14.7833 104.687 14.7461 104.911 14.7461C105.221 14.7461 105.494 14.833 105.718 14.9944C105.941 15.1557 106.127 15.4785 106.264 15.9626L108.176 22.4054C108.312 22.8399 108.449 23.3116 108.573 23.8082C108.697 24.3047 108.821 24.7889 108.945 25.2606C109.069 25.7323 109.169 26.142 109.243 26.502C109.28 26.6261 109.367 26.7006 109.504 26.7006L112.595 14.9447C112.769 14.9075 112.955 14.8826 113.166 14.8578C113.377 14.8454 113.576 14.833 113.774 14.833C114.01 14.833 114.246 14.8454 114.482 14.8702C114.718 14.8951 114.941 14.9447 115.152 15.0192L115.251 15.1682L111.565 28.1033Z" fill="#030F3F"/>
<path d="M118.961 14.8468C119.532 14.8468 119.917 15.0206 120.128 15.3558C120.352 15.6909 120.463 16.1502 120.463 16.7585V28.5516C120.091 28.6261 119.656 28.6633 119.135 28.6633C118.614 28.6633 118.154 28.6261 117.77 28.5516V15.0206L117.943 14.8468H118.961ZM128.545 25.6964C128.545 26.1682 128.57 26.6275 128.632 27.0496C128.694 27.4716 128.806 27.844 128.979 28.1544C128.781 28.3158 128.52 28.4523 128.222 28.564C127.924 28.6758 127.614 28.7254 127.291 28.7254C126.77 28.7254 126.397 28.5889 126.174 28.3033C125.963 28.0054 125.851 27.5833 125.851 27.0123V19.8744C125.851 18.9185 125.727 18.2358 125.491 17.8013C125.255 17.3668 124.783 17.1558 124.088 17.1558C123.604 17.1558 123.083 17.2675 122.536 17.5033C121.99 17.7268 121.469 18.0371 120.985 18.4592C120.501 18.8689 120.103 19.353 119.805 19.8868V17.2675C120.426 16.5475 121.183 15.9516 122.077 15.4675C122.983 14.9709 123.939 14.7227 124.932 14.7227C125.801 14.7227 126.497 14.9213 127.03 15.3309C127.564 15.7282 127.949 16.262 128.197 16.9447C128.446 17.6151 128.57 18.3723 128.57 19.204V25.6964H128.545Z" fill="#030F3F"/>
<path d="M140.055 20.1342C140.08 19.5508 140.03 18.9921 139.894 18.4708C139.769 17.9494 139.509 17.5149 139.136 17.1921C138.764 16.857 138.243 16.6956 137.547 16.6956C136.654 16.6956 135.958 17.1301 135.437 17.9866C134.916 18.8556 134.667 20.1342 134.667 21.8473C134.667 23.5232 134.953 24.7397 135.512 25.5218C136.083 26.2915 136.865 26.6763 137.87 26.6763C138.516 26.6763 139.112 26.5273 139.67 26.2294C140.241 25.9315 140.763 25.6087 141.259 25.2487C141.495 25.3977 141.731 25.6335 141.967 25.9563C142.19 26.2666 142.352 26.577 142.426 26.8749C141.805 27.4832 141.073 27.9673 140.216 28.3521C139.372 28.7246 138.454 28.8983 137.473 28.8983C136.492 28.8983 135.648 28.7121 134.941 28.3273C134.233 27.9425 133.649 27.4211 133.203 26.7756C132.756 26.1177 132.421 25.3604 132.209 24.5163C131.998 23.6597 131.887 22.7659 131.887 21.8349C131.887 20.1466 132.16 18.7687 132.718 17.7011C133.265 16.6335 133.985 15.8514 134.854 15.3549C135.735 14.8459 136.654 14.5977 137.622 14.5977C138.466 14.5977 139.198 14.7218 139.819 14.9825C140.44 15.2432 140.961 15.5659 141.358 15.9756C141.768 16.3852 142.078 16.8197 142.265 17.3163C142.463 17.788 142.563 18.2597 142.563 18.719C142.563 19.1659 142.463 19.5383 142.252 19.8239C142.041 20.097 141.681 20.2335 141.185 20.2335C140.974 20.2335 140.787 20.2211 140.601 20.2087C140.427 20.1963 140.241 20.1714 140.055 20.1342Z" fill="#030F3F"/>
<path d="M12.2917 7.69479C6.22134 6.96238 0.73444 11.0217 0.0392676 16.7321C-0.655905 22.4797 8.10823 35.2783 8.19513 35.4024L8.23237 35.4645C8.56754 36.0976 9.15099 36.1721 9.62272 35.6259L9.68479 35.5762C9.80892 35.4769 21.3414 25.1859 22.049 19.3762C22.7317 13.6659 18.3621 8.42721 12.2917 7.69479ZM18.9455 18.979C18.5731 22.0948 13.0738 28.0907 9.4241 31.4052C6.66823 27.2962 2.75789 20.1459 3.1303 17.0548C3.62685 12.9707 7.56203 10.0782 11.9317 10.612C16.289 11.1334 19.4296 14.8948 18.9455 18.979Z" fill="url(#paint0_linear_29632_273)"/>
<path d="M21.7139 2.40698C21.6767 1.89801 21.267 1.67456 20.8201 1.91042C20.8201 1.91042 15.6808 4.60422 13.707 6.85111C14.3401 7.00008 14.9608 7.18629 15.5443 7.42215C16.3636 6.65249 17.8532 5.53525 20.0629 4.30629C20.4725 7.36008 20.3732 9.60698 20.125 10.6249C20.6215 11.1835 21.0684 11.7918 21.4408 12.4373C21.4905 12.3628 21.5401 12.2884 21.5898 12.2015C22.8684 9.89249 21.7139 2.40698 21.7139 2.40698Z" fill="url(#paint1_linear_29632_273)"/>
<path d="M2.38456 9.47007C2.27284 8.42731 2.47146 6.19283 3.26594 3.22593C5.28939 4.71559 6.63008 6.01904 7.35008 6.888C7.97077 6.73904 8.60387 6.62731 9.24939 6.56524C7.57353 4.08248 2.83146 0.755582 2.83146 0.755582C2.40939 0.457651 1.98732 0.631444 1.8756 1.128C1.8756 1.128 -0.234748 8.39006 0.721114 10.8604C0.758355 10.9473 0.795596 11.0218 0.832838 11.0963C1.30456 10.5004 1.82594 9.96662 2.38456 9.47007Z" fill="url(#paint2_linear_29632_273)"/>
</g>
</g>
<defs>
<linearGradient id="paint0_linear_29632_273" x1="8.78682" y1="36.6443" x2="10.5931" y2="4.77356" gradientUnits="userSpaceOnUse">
<stop stop-color="#FCAB46"/>
<stop offset="1" stop-color="#F9674F"/>
</linearGradient>
<linearGradient id="paint1_linear_29632_273" x1="17.0777" y1="12.6815" x2="17.7373" y2="0.753377" gradientUnits="userSpaceOnUse">
<stop stop-color="#FA7C4C"/>
<stop offset="1" stop-color="#F9664F"/>
</linearGradient>
<linearGradient id="paint2_linear_29632_273" x1="3.9592" y1="11.3374" x2="4.58093" y2="-0.443434" gradientUnits="userSpaceOnUse">
<stop stop-color="#FA7A4D"/>
<stop offset="1" stop-color="#F8654F"/>
</linearGradient>
<clipPath id="clip0_29632_273">
<rect width="142.634" height="36" fill="white"/>
</clipPath>
</defs>
</svg>

<svg xmlns="http://www.w3.org/2000/svg" fill="none" viewBox="0 0 143 36"><g clip-path="url(#a)"><mask id="b" width="143" height="36" x="0" y="0" maskUnits="userSpaceOnUse" style="mask-type:luminance"><path fill="#fff" d="M142.634 0H0v36h142.634V0Z"/></mask><g mask="url(#b)"><path fill="#030F3F" d="M29.559 26.837c.037-.41.173-.807.397-1.204.236-.41.496-.72.782-.956.794.534 1.688.981 2.657 1.341.968.36 1.936.534 2.88.534 1.142 0 2.035-.248 2.668-.745.634-.497.969-1.142.969-1.924 0-.683-.224-1.291-.683-1.788-.447-.509-1.08-.943-1.9-1.278l-3.314-1.39c-1.154-.497-2.073-1.118-2.756-1.875-.683-.758-1.018-1.726-1.018-2.893 0-.98.261-1.874.77-2.669.509-.806 1.241-1.452 2.16-1.911.931-.472 2.011-.708 3.24-.708 1.13 0 2.197.15 3.203.447 1.005.286 1.862.608 2.582.968a3.123 3.123 0 0 1-.298 1.204 2.85 2.85 0 0 1-.72.993 14.05 14.05 0 0 0-2.371-.906c-.844-.26-1.626-.384-2.334-.384-1.043 0-1.862.26-2.483.77-.62.508-.918 1.154-.918 1.91 0 .634.223 1.143.658 1.54.447.397 1.018.745 1.713 1.03l3.277 1.366c.77.323 1.465.72 2.086 1.204a5.562 5.562 0 0 1 1.49 1.7c.372.659.545 1.391.545 2.235 0 1.043-.248 1.986-.732 2.806-.484.832-1.229 1.477-2.222 1.961-.993.472-2.247.72-3.761.72-1.143 0-2.297-.186-3.464-.546-1.154-.41-2.197-.919-3.103-1.552Zm17.145-14.365c0-.608.1-1.042.286-1.328.198-.273.583-.41 1.154-.41h1.006l.173.174v14.425c0 .36.087.646.249.869.173.211.459.323.869.323h1.949c.149.41.223.856.223 1.365 0 .1 0 .199-.012.298a.91.91 0 0 1-.038.273 21.57 21.57 0 0 1-3.029.199c-.906 0-1.613-.224-2.11-.683-.484-.46-.732-1.142-.732-2.048V12.472h.012Zm6.058 2.458a4.102 4.102 0 0 1 0 1.999l-4.432-.05-3.624.05a4.458 4.458 0 0 1-.112-1.006c0-.31.037-.645.111-.993l3.638.075 4.419-.075Zm9.705 13.173c-.41 1.415-.844 2.595-1.328 3.55-.472.969-1.093 1.689-1.838 2.173-.745.484-1.713.733-2.904.733-.422 0-.882-.05-1.39-.137a7.62 7.62 0 0 1-1.168-.286c-.024-.322.013-.67.137-1.055.124-.372.26-.67.447-.881.223.074.521.149.893.223.373.075.745.112 1.105.112.633 0 1.155-.149 1.577-.447.422-.285.77-.695 1.043-1.229a9.375 9.375 0 0 0 .745-1.862l.099-.323c-.546-.024-.993-.136-1.304-.335-.322-.198-.57-.583-.745-1.13l-3.65-12.053c.299-.137.597-.236.87-.298.285-.075.534-.112.757-.112.31 0 .584.087.807.248.223.162.41.485.546.969l1.912 6.442c.136.435.273.907.397 1.403.124.497.248.98.373 1.453.124.471.223.881.297 1.241.038.124.125.199.261.199l3.091-11.756c.174-.037.36-.062.571-.087a6.76 6.76 0 0 1 1.316.012c.236.025.46.075.67.15l.1.148-3.687 12.935Zm10.939-1.578c.15.397.224.844.224 1.366 0 .099 0 .198-.013.297 0 .1-.012.199-.037.274-.298.05-.67.086-1.105.136-.434.05-.82.075-1.167.075-.856 0-1.514-.224-1.974-.683-.447-.46-.67-1.142-.67-2.048V8.462l.161-.173h1.018c.571 0 .956.137 1.142.422.2.273.298.72.298 1.328v15.282c0 .41.087.707.261.906.186.199.46.298.807.298h1.055Zm3.774-3.934v-1.973h6.864v-.36c0-.658-.1-1.267-.286-1.825-.186-.559-.484-1.006-.906-1.34-.41-.336-.956-.497-1.638-.497-.969 0-1.701.41-2.185 1.229-.484.806-.733 1.911-.733 3.326v.832c0 .894.087 1.7.273 2.408.199.708.522 1.267.993 1.676.472.41 1.13.609 1.987.609.707 0 1.378-.1 2.023-.298a13.5 13.5 0 0 0 1.85-.77c.223.211.422.484.57.832.162.335.25.633.286.906-.658.472-1.427.844-2.346 1.13a9.156 9.156 0 0 1-2.78.422c-1.08 0-1.974-.199-2.707-.584-.72-.397-1.303-.918-1.738-1.589a6.545 6.545 0 0 1-.918-2.284 12.593 12.593 0 0 1-.273-2.681c0-1.366.21-2.595.633-3.662.434-1.08 1.067-1.937 1.912-2.558.844-.62 1.899-.93 3.153-.93 1.179 0 2.184.26 2.991.794a5.012 5.012 0 0 1 1.838 2.123c.41.881.62 1.874.62 2.966 0 .423-.012.795-.037 1.105a9.006 9.006 0 0 1-.149 1.006h-9.298v-.013Zm11.754 4.246c.037-.41.173-.807.397-1.204.236-.41.496-.72.782-.956.794.534 1.688.981 2.656 1.341a8.25 8.25 0 0 0 2.88.534c1.142 0 2.036-.248 2.67-.745.632-.497.968-1.142.968-1.924 0-.683-.224-1.291-.683-1.788-.447-.509-1.08-.943-1.9-1.278l-3.326-1.39c-1.155-.497-2.073-1.118-2.756-1.875-.683-.758-1.018-1.726-1.018-2.893 0-.98.26-1.874.77-2.669.509-.806 1.241-1.452 2.16-1.911.93-.472 2.01-.708 3.24-.708 1.13 0 2.197.15 3.202.447 1.006.286 1.862.608 2.582.968a3.102 3.102 0 0 1-.298 1.204c-.186.41-.422.733-.72.993-.72-.36-1.514-.657-2.37-.906-.845-.26-1.627-.384-2.334-.384-1.043 0-1.862.26-2.483.77-.62.508-.919 1.154-.919 1.91 0 .634.224 1.143.658 1.54.447.397 1.018.745 1.713 1.03l3.278 1.366a9.06 9.06 0 0 1 2.085 1.204 5.567 5.567 0 0 1 1.49 1.7c.372.659.546 1.391.546 2.235 0 1.043-.248 1.986-.732 2.806-.485.832-1.229 1.477-2.222 1.961-.994.472-2.247.72-3.762.72a11.71 11.71 0 0 1-3.463-.546c-1.155-.41-2.185-.919-3.091-1.552Zm22.631 1.266c-.41 1.415-.845 2.595-1.329 3.55-.471.969-1.092 1.689-1.837 2.173-.745.484-1.713.733-2.905.733-.422 0-.881-.05-1.39-.137a7.594 7.594 0 0 1-1.167-.286 2.7 2.7 0 0 1 .137-1.055c.124-.372.26-.67.446-.881a7.8 7.8 0 0 0 .894.223 5.66 5.66 0 0 0 1.105.112c.633 0 1.154-.149 1.577-.447.422-.285.769-.695 1.042-1.229a9.345 9.345 0 0 0 .745-1.862l.099-.323c-.546-.024-.993-.136-1.303-.335-.323-.198-.571-.583-.745-1.13l-3.649-12.053c.297-.137.595-.236.869-.298a3.01 3.01 0 0 1 .757-.112c.31 0 .583.087.807.248.223.162.409.485.546.969l1.912 6.442c.136.435.273.907.397 1.403.124.497.248.98.372 1.453.124.471.224.881.298 1.241.037.124.124.199.261.199l3.091-11.756c.174-.037.36-.062.571-.087a6.77 6.77 0 0 1 1.316.012c.236.025.459.075.67.15l.099.148-3.686 12.935Zm7.396-13.256c.571 0 .956.174 1.167.509.224.335.335.794.335 1.403v11.793a6.799 6.799 0 0 1-1.328.111c-.521 0-.981-.037-1.365-.111V15.02l.173-.174h1.018Zm9.584 10.85c0 .471.025.93.087 1.353.062.422.174.794.347 1.104a2.713 2.713 0 0 1-.757.41 2.622 2.622 0 0 1-.931.161c-.521 0-.894-.136-1.117-.422-.211-.298-.323-.72-.323-1.29v-7.139c0-.955-.124-1.638-.36-2.073-.236-.434-.708-.645-1.403-.645-.484 0-1.005.111-1.552.347a5.524 5.524 0 0 0-1.551.956c-.484.41-.882.894-1.18 1.428v-2.62a7.966 7.966 0 0 1 2.272-1.8 5.869 5.869 0 0 1 2.855-.744c.869 0 1.565.198 2.098.608.534.397.919.931 1.167 1.614.249.67.373 1.427.373 2.259v6.492h-.025Zm11.51-5.563a5.629 5.629 0 0 0-.161-1.663 2.399 2.399 0 0 0-.758-1.279c-.372-.335-.893-.496-1.589-.496-.893 0-1.589.434-2.11 1.29-.521.87-.77 2.148-.77 3.861 0 1.676.286 2.893.845 3.675.571.77 1.353 1.154 2.358 1.154.646 0 1.242-.149 1.8-.447.571-.297 1.093-.62 1.589-.98.236.149.472.385.708.707.223.31.385.621.459.919-.621.608-1.353 1.092-2.21 1.477-.844.373-1.762.546-2.743.546-.981 0-1.825-.186-2.532-.57a4.973 4.973 0 0 1-1.738-1.552 7.051 7.051 0 0 1-.994-2.26 11.173 11.173 0 0 1-.322-2.681c0-1.688.273-3.066.831-4.134.547-1.067 1.267-1.85 2.136-2.346a5.437 5.437 0 0 1 2.768-.757c.844 0 1.576.124 2.197.384.621.261 1.142.584 1.539.994.41.41.72.844.907 1.34.198.472.298.944.298 1.403 0 .447-.1.82-.311 1.105-.211.273-.571.41-1.067.41-.211 0-.398-.013-.584-.025a4.413 4.413 0 0 1-.546-.075Z"/><path fill="url(#c)" d="M12.292 7.695C6.222 6.962.734 11.022.039 16.732c-.695 5.748 8.07 18.546 8.156 18.67l.037.063c.336.633.919.707 1.39.16l.063-.049c.124-.1 11.656-10.39 12.364-16.2.683-5.71-3.687-10.949-9.757-11.681Zm6.653 11.284c-.372 3.116-5.871 9.112-9.52 12.426-2.757-4.109-6.667-11.26-6.295-14.35.497-4.084 4.432-6.977 8.802-6.443 4.357.521 7.498 4.283 7.013 8.367Z"/><path fill="url(#d)" d="M21.714 2.407c-.037-.509-.447-.732-.894-.497 0 0-5.14 2.694-7.113 4.941.633.15 1.254.335 1.837.571.82-.77 2.31-1.887 4.519-3.116.41 3.054.31 5.301.062 6.319.497.559.943 1.167 1.316 1.812.05-.074.1-.149.149-.236 1.278-2.309.124-9.794.124-9.794Z"/><path fill="url(#e)" d="M2.385 9.47c-.112-1.043.086-3.277.88-6.244C5.29 4.716 6.63 6.019 7.35 6.888a13.79 13.79 0 0 1 1.9-.323C7.573 4.082 2.83.755 2.83.755c-.422-.297-.844-.124-.955.373 0 0-2.11 7.262-1.155 9.732.037.087.075.162.112.236.472-.596.993-1.13 1.552-1.626Z"/></g></g><defs><linearGradient id="c" x1="8.787" x2="10.593" y1="36.644" y2="4.774" gradientUnits="userSpaceOnUse"><stop stop-color="#FCAB46"/><stop offset="1" stop-color="#F9674F"/></linearGradient><linearGradient id="d" x1="17.078" x2="17.737" y1="12.681" y2=".753" gradientUnits="userSpaceOnUse"><stop stop-color="#FA7C4C"/><stop offset="1" stop-color="#F9664F"/></linearGradient><linearGradient id="e" x1="3.959" x2="4.581" y1="11.337" y2="-.443" gradientUnits="userSpaceOnUse"><stop stop-color="#FA7A4D"/><stop offset="1" stop-color="#F8654F"/></linearGradient><clipPath id="a"><path fill="#fff" d="M0 0h142.634v36H0z"/></clipPath></defs></svg>
